icons/svg/ebay.svg

﻿<?xml version="1.0" encoding="utf-8"?>
<!DOCTYPE svg PUBLIC "-//W3C//DTD SVG 1.1//EN" "http://www.w3.org/Graphics/SVG/1.1/DTD/svg11.dtd">
<svg xmlns="http://www.w3.org/2000/svg" xmlns:xlink="http://www.w3.org/1999/xlink" version="1.1" baseProfile="full" width="24" height="24" viewBox="0 0 24.00 24.00" enable-background="new 0 0 24.00 24.00" xml:space="preserve">
	<path fill="#000000" fill-opacity="1" stroke-linejoin="round" d="M 3.80476,10.507C 2.98881,10.507 2.162,11.0236 2.162,11.9293L 5.36739,11.9293C 5.36739,11.0762 4.73394,10.507 3.80476,10.507 Z M 3.84483,9.76568C 5.90474,9.76568 6.50432,11.1167 6.52855,12.0314L 6.52855,7.84249L 7.65039,7.84249L 7.65039,10.6071C 7.65039,10.6071 8.12592,9.78073 9.65629,9.78073C 11.2905,9.78073 12.2581,10.935 12.2581,12.3701C 12.2581,12.5456 12.2445,12.7151 12.218,12.8777C 12.4824,12.1356 13.3972,11.7691 14.9025,11.7691L 16.2648,11.7691L 16.2648,11.5287C 16.2648,10.8532 15.67,10.5019 14.9025,10.5019C 13.7214,10.5019 13.6605,11.2482 13.6605,11.2482L 12.4986,11.2482C 12.4986,11.0439 12.6482,9.76568 14.9826,9.76568C 15.7777,9.76568 16.6479,9.93168 17.0912,10.5859L 16.761,9.96626L 18.0682,9.96626L 19.9442,13.7246L 21.8159,9.96626L 23.0001,9.96626L 19.5908,16.6575L 18.3487,16.6575L 19.3325,14.7922L 17.2434,10.8716C 17.3351,11.0964 17.3867,11.3642 17.3867,11.6827L 17.3867,14.098C 17.3867,14.3774 17.4268,14.8142 17.4268,14.8142L 16.3938,14.8142C 16.3938,14.8142 16.3663,14.4617 16.3663,14.1042C 16.3663,14.1042 15.8422,15.0032 14.2151,15.0032C 13.0213,15.0032 12.1379,14.4284 12.1379,13.3718C 12.1379,13.3125 12.1408,13.2549 12.1466,13.199C 11.8374,14.2848 10.9084,14.9895 9.65379,14.9895C 8.18097,14.9895 7.63933,14.1421 7.63933,14.1421C 7.63933,14.4631 7.59994,14.8142 7.59994,14.8142L 6.50369,14.8142C 6.50369,14.8142 6.52855,14.3252 6.52855,13.977L 6.52855,12.6696L 2.1366,12.6696C 2.1366,13.5938 2.83865,14.2532 3.81479,14.2532C 5.01329,14.2532 5.25972,13.4119 5.25972,13.4119L 6.40915,13.4119C 6.40915,13.4119 6.25707,14.9744 3.88491,14.9744C 1.86957,14.9744 1.00008,13.9836 1.00008,12.4101C 1.00008,10.424 2.29311,9.76568 3.84483,9.76568 Z M 9.37329,10.5395C 8.19451,10.5395 7.65039,11.4735 7.65039,12.3801C 7.65039,13.353 8.25675,14.2307 9.38081,14.2307C 10.3227,14.2307 11.0962,13.4949 11.0962,12.3701C 11.0962,11.3211 10.4264,10.5395 9.37329,10.5395 Z M 16.2648,12.4904C 14.5007,12.4904 13.2999,12.4959 13.2999,13.3718C 13.2999,13.8532 13.6565,14.2683 14.4881,14.2683C 16.0068,14.2683 16.2648,13.2289 16.2648,12.8108L 16.2648,12.4904 Z "/>
</svg>

<svg xmlns="http://www.w3.org/2000/svg" version="1.1" baseProfile="full" width="24" height="24" viewBox="0 0 24.00 24.00" xml:space="preserve"><path fill="#000" fill-opacity="1" stroke-linejoin="round" d="M3.805 10.507c-.816 0-1.643.517-1.643 1.422h3.205c0-.854-.633-1.423-1.562-1.423zm.04-.74c2.06 0 2.66 1.35 2.684 2.264V7.843h1.12v2.765s.476-.826 2.006-.826c1.634 0 2.602 1.155 2.602 2.59 0 .176-.013.345-.04.508.264-.742 1.18-1.11 2.684-1.11h1.363v-.24c0-.675-.595-1.026-1.363-1.026-1.18 0-1.24.746-1.24.746h-1.163c0-.204.148-1.482 2.483-1.482.795 0 1.665.166 2.108.82l-.33-.62h1.308l1.876 3.76 1.872-3.76H23l-3.41 6.69-1.24.002.982-1.866-2.09-3.92c.093.224.145.492.145.81V14.1c0 .28.04.716.04.716h-1.033s-.028-.352-.028-.71c0 0-.524.9-2.15.9-1.195 0-2.078-.576-2.078-1.632 0-.06.003-.117.01-.173-.31 1.085-1.24 1.79-2.494 1.79-1.473 0-2.015-.848-2.015-.848 0 .32-.04.672-.04.672H6.504s.025-.49.025-.837V12.67H2.136c0 .924.702 1.583 1.678 1.583 1.198 0 1.445-.84 1.445-.84h1.15s-.153 1.56-2.525 1.56C1.87 14.974 1 13.984 1 12.41c0-1.986 1.293-2.644 2.845-2.644zm5.528.773c-1.178 0-1.723.934-1.723 1.84 0 .973.607 1.85 1.73 1.85.943 0 1.716-.735 1.716-1.86 0-1.05-.67-1.83-1.723-1.83zm6.892 1.95c-1.764 0-2.965.006-2.965.882 0 .48.356.896 1.188.896 1.52 0 1.777-1.04 1.777-1.457v-.32z"/></svg>
